Simply-Cyan-Circles/scalable/apps/kalgebra.svg

<svg xmlns="http://www.w3.org/2000/svg" width="48" height="48" viewBox="0 0 12.7 12.7"><path d="M6.35.06a6.29 6.29 0 0 0-6.29 6.3 6.29 6.29 0 0 0 6.3 6.28 6.29 6.29 0 0 0 6.28-6.29A6.29 6.29 0 0 0 6.35.06zM6.33 1a5.4 5.4 0 0 1 2.35.54h-4.7A5.4 5.4 0 0 1 6.33 1zm2.59.66a5.4 5.4 0 0 1 2.82 4.74 5.4 5.4 0 0 1-1.96 4.17V9.16h-.86v.95H3.89l2-3.83-1.97-3.79h4.14v.48h.86V1.66zm-6.1.64l.1.19.5.94 1.47 2.85-1.97 3.8-.19.35A5.4 5.4 0 0 1 .93 6.4a5.4 5.4 0 0 1 1.9-4.1zm.78 8.76h5.46a5.4 5.4 0 0 1-2.73.75 5.4 5.4 0 0 1-2.73-.75z" fill="#5beedc"/></svg>

<?xml version="1.0" encoding="UTF-8" standalone="no"?>
<svg
   xmlns:dc="http://purl.org/dc/elements/1.1/"
   xmlns:cc="http://creativecommons.org/ns#"
   xmlns:rdf="http://www.w3.org/1999/02/22-rdf-syntax-ns#"
   xmlns:svg="http://www.w3.org/2000/svg"
   xmlns="http://www.w3.org/2000/svg"
   xmlns:sodipodi="http://sodipodi.sourceforge.net/DTD/sodipodi-0.dtd"
   xmlns:inkscape="http://www.inkscape.org/namespaces/inkscape"
   width="48"
   height="48"
   viewBox="0 0 12.7 12.7"
   version="1.1"
   id="svg4"
   sodipodi:docname="kalgebra.svg"
   inkscape:version="0.92.4 (5da689c313, 2019-01-14)">
  <metadata
     id="metadata10">
    <rdf:RDF>
      <cc:Work
         rdf:about="">
        <dc:format>image/svg+xml</dc:format>
        <dc:type
           rdf:resource="http://purl.org/dc/dcmitype/StillImage" />
        <dc:title></dc:title>
      </cc:Work>
    </rdf:RDF>
  </metadata>
  <defs
     id="defs8" />
  <sodipodi:namedview
     pagecolor="#ffffff"
     bordercolor="#666666"
     borderopacity="1"
     objecttolerance="10"
     gridtolerance="10"
     guidetolerance="10"
     inkscape:pageopacity="0"
     inkscape:pageshadow="2"
     inkscape:window-width="1087"
     inkscape:window-height="480"
     id="namedview6"
     showgrid="false"
     inkscape:zoom="4.9166667"
     inkscape:cx="2.1355932"
     inkscape:cy="24"
     inkscape:window-x="0"
     inkscape:window-y="25"
     inkscape:window-maximized="0"
     inkscape:current-layer="svg4" />
  <path
     d="M 6.35,0.06 A 6.29,6.29 0 0 0 0.06,6.36 6.29,6.29 0 0 0 6.36,12.64 6.29,6.29 0 0 0 12.64,6.35 6.29,6.29 0 0 0 6.35,0.06 Z M 6.33,1 A 5.4,5.4 0 0 1 8.68,1.54 H 3.98 A 5.4,5.4 0 0 1 6.33,1 Z M 8.92,1.66 A 5.4,5.4 0 0 1 11.74,6.4 5.4,5.4 0 0 1 9.78,10.57 V 9.16 H 8.92 v 0.95 H 3.89 l 2,-3.83 -1.97,-3.79 h 4.14 v 0.48 h 0.86 z m -6.1,0.64 0.1,0.19 0.5,0.94 1.47,2.85 -1.97,3.8 -0.19,0.35 A 5.4,5.4 0 0 1 0.93,6.4 5.4,5.4 0 0 1 2.83,2.3 Z M 3.6,11.06 H 9.06 A 5.4,5.4 0 0 1 6.33,11.81 5.4,5.4 0 0 1 3.6,11.06 Z"
     id="path2"
     inkscape:connector-curvature="0"
     style="fill:#5beedc" />
</svg>
